src/img/icons/sign-out.svg

<svg fill="none" height="19" viewBox="0 0 21 19" width="21" xmlns="http://www.w3.org/2000/svg"><path d="m6.25 15.75h-2.5c-.70312 0-1.25-.5469-1.25-1.25v-10c0-.66406.54688-1.25 1.25-1.25h2.5c.66406 0 1.25-.54688 1.25-1.25 0-.66406-.58594-1.25-1.25-1.25h-2.5c-2.10938 0-3.75 1.67969-3.75 3.75v10c0 2.1094 1.64062 3.75 3.75 3.75h2.5c.66406 0 1.25-.5469 1.25-1.25 0-.6641-.58594-1.25-1.25-1.25zm13.3594-7.10938-5-5c-.4688-.50781-1.2891-.50781-1.7578 0-.5078.46876-.5078 1.28907 0 1.75782l2.8515 2.85156h-8.2031c-.70312 0-1.25.58594-1.25 1.25 0 .7031.54688 1.25 1.25 1.25h8.2031l-2.8515 2.8906c-.5078.4688-.5078 1.2891 0 1.7578.4687.5078 1.289.5078 1.7578 0l5-5c.5078-.46871.5078-1.28902 0-1.75778z" fill="#fff"/></svg>

<svg width="21" height="19" viewBox="0 0 21 19" fill="none" xmlns="http://www.w3.org/2000/svg">
<path d="M6.25 15.75H3.75C3.04688 15.75 2.5 15.2031 2.5 14.5V4.5C2.5 3.83594 3.04688 3.25 3.75 3.25H6.25C6.91406 3.25 7.5 2.70312 7.5 2C7.5 1.33594 6.91406 0.75 6.25 0.75H3.75C1.64062 0.75 0 2.42969 0 4.5V14.5C0 16.6094 1.64062 18.25 3.75 18.25H6.25C6.91406 18.25 7.5 17.7031 7.5 17C7.5 16.3359 6.91406 15.75 6.25 15.75ZM19.6094 8.64062L14.6094 3.64062C14.1406 3.13281 13.3203 3.13281 12.8516 3.64062C12.3438 4.10938 12.3438 4.92969 12.8516 5.39844L15.7031 8.25H7.5C6.79688 8.25 6.25 8.83594 6.25 9.5C6.25 10.2031 6.79688 10.75 7.5 10.75H15.7031L12.8516 13.6406C12.3438 14.1094 12.3438 14.9297 12.8516 15.3984C13.3203 15.9062 14.1406 15.9062 14.6094 15.3984L19.6094 10.3984C20.1172 9.92969 20.1172 9.10938 19.6094 8.64062Z" fill="white"/>
</svg>
